demos/KANBAN/public/icons/Calendar.svg

<svg width="20" height="20" viewBox="0 0 20 20" fill="none" xmlns="http://www.w3.org/2000/svg">
<path d="M18.3871 1.94688H16.2903V1.41591C16.2903 0.910059 16.0444 0.4426 15.6452 0.189634C15.246 -0.0632112 14.754 -0.0632112 14.3548 0.189634C13.9556 0.442636 13.7097 0.9101 13.7097 1.41591V1.94688H6.29032V1.41591C6.29032 0.910059 6.04435 0.4426 5.64516 0.189634C5.24597 -0.0632112 4.75403 -0.0632112 4.35484 0.189634C3.95565 0.442636 3.70968 0.9101 3.70968 1.41591V1.94688H1.6129C1.18518 1.94688 0.774931 2.13336 0.472332 2.4652C0.169913 2.79721 0 3.24744 0 3.7168V18.2301C0 18.6994 0.169932 19.1496 0.472332 19.4817C0.774894 19.8135 1.18518 20 1.6129 20H18.3871C18.8148 20 19.2251 19.8135 19.5277 19.4817C19.8301 19.1497 20 18.6994 20 18.2301V3.7168C20 3.24744 19.8301 2.79725 19.5277 2.4652C19.2251 2.13334 18.8148 1.94688 18.3871 1.94688ZM14.3547 1.41591C14.3547 1.16291 14.4776 0.929194 14.6772 0.802772C14.8768 0.67635 15.1228 0.67635 15.3224 0.802772C15.522 0.929194 15.645 1.16292 15.645 1.41591V3.53981C15.645 3.79281 15.522 4.02652 15.3224 4.15294C15.1228 4.27937 14.8768 4.27937 14.6772 4.15294C14.4776 4.02652 14.3547 3.7928 14.3547 3.53981V1.41591ZM4.35465 1.41591C4.35465 1.16291 4.47764 0.929194 4.67723 0.802772C4.87683 0.67635 5.1228 0.67635 5.3224 0.802772C5.52199 0.929194 5.64498 1.16292 5.64498 1.41591V3.53981C5.64498 3.79281 5.52199 4.02652 5.3224 4.15294C5.1228 4.27937 4.87683 4.27937 4.67723 4.15294C4.47764 4.02652 4.35465 3.7928 4.35465 3.53981V1.41591ZM1.61272 2.65485H3.70949V3.53981C3.70949 4.04566 3.95546 4.51312 4.35465 4.76608C4.75384 5.01893 5.24579 5.01893 5.64498 4.76608C6.04417 4.51308 6.29014 4.04562 6.29014 3.53981V2.65485H13.7095V3.53981C13.7095 4.04566 13.9555 4.51312 14.3547 4.76608C14.7538 5.01893 15.2458 5.01893 15.645 4.76608C16.0442 4.51308 16.2901 4.04562 16.2901 3.53981V2.65485H18.3869C18.6435 2.65485 18.8898 2.76673 19.0712 2.96585C19.2526 3.16496 19.3546 3.43521 19.3546 3.71678V6.37165H0.644958V3.71678C0.644958 3.43517 0.746916 3.16493 0.928369 2.96585C1.10982 2.76677 1.35609 2.65485 1.61268 2.65485H1.61272ZM18.3869 19.292H1.61272C1.3561 19.292 1.10982 19.1802 0.928405 18.981C0.746986 18.7819 0.644995 18.5117 0.644995 18.2301V7.07986H19.3547V18.2301C19.3547 18.5117 19.2527 18.782 19.0713 18.981C18.8898 19.1801 18.6435 19.292 18.3869 19.292H18.3869Z" fill="#5D6679"/>
</svg>

<svg xmlns="http://www.w3.org/2000/svg" width="20" height="20" fill="none"><path fill="#5D6679" d="M18.387 1.947H16.29v-.531c0-.506-.246-.973-.645-1.226a1.192 1.192 0 0 0-1.29 0c-.4.253-.645.72-.645 1.226v.53H6.29v-.53C6.29.91 6.044.443 5.645.19a1.192 1.192 0 0 0-1.29 0c-.4.253-.645.72-.645 1.226v.53H1.613c-.428 0-.838.187-1.14.52A1.862 1.862 0 0 0 0 3.715V18.23c0 .47.17.92.472 1.252.303.332.713.518 1.14.518h16.775c.428 0 .838-.186 1.14-.518.303-.332.473-.783.473-1.252V3.717c0-.47-.17-.92-.472-1.252a1.545 1.545 0 0 0-1.14-.518Zm-4.032-.531c0-.253.123-.487.322-.613a.596.596 0 0 1 .645 0c.2.126.323.36.323.613V3.54a.723.723 0 0 1-.323.613.596.596 0 0 1-.645 0 .723.723 0 0 1-.322-.613V1.416Zm-10 0c0-.253.123-.487.322-.613a.596.596 0 0 1 .645 0c.2.126.323.36.323.613V3.54a.723.723 0 0 1-.323.613.596.596 0 0 1-.645 0 .723.723 0 0 1-.322-.613V1.416ZM1.613 2.655h2.096v.885c0 .506.246.973.646 1.226.399.253.89.253 1.29 0s.645-.72.645-1.226v-.885h7.42v.885c0 .506.245.973.645 1.226.399.253.89.253 1.29 0s.645-.72.645-1.226v-.885h2.097c.256 0 .503.112.684.31.182.2.284.47.284.752v2.655H.645V3.717c0-.282.102-.552.283-.751a.927.927 0 0 1 .685-.311Zm16.774 16.637H1.613a.926.926 0 0 1-.685-.311c-.181-.2-.283-.47-.283-.75V7.08h18.71v11.15c0 .282-.102.552-.284.751a.927.927 0 0 1-.684.311Z"/></svg>
